X: 41768
T: Varsovienne
R: mazurka
M: 3/4
K: Gmajor
|:Bc d2 G2|B2 A4|AB c2 F2|e2 d4|
Bc d2 G2|d2 e4|GA B2 c2|A2 G4:|
|:d2 e2 e2|e2 d4|B2 c2 c2|d2 B4|
GA B2 B2|B2 B4|AB c2 B2|A2 G4:|
[2 AB c2(step) B2(step)|A2(step) G4(step):|

